X: 1
T: Don't Know
C: Transcribed by Will
L: 1/8
M: 4/4
K: D
u(ag) || (fd)(ec d2) (AG) | ((3EFG) (AB c2) BA | A(d ~d2) (fd)(ed) | ((3Bcd) (ef g2 ag) |
v(fd)(ec) d2 (AG) | ((3EFG) (AB c2) BA | A(d ~d2) (fd)(ed) |1 A(ddc) d2 :|2 A(ddc) d3 e |
v(fd)u(fg a2) (ga-|b)(ga)(f g)fed | (fd)(fg a2) (ga|b)(ga)(f g2 ~g2- |
vfd)u(fg a2) (ga|bg)(af) gfed | bgau(f gf)ed |1 ((3Bcd) (ef g2) ag :|2 ((3Bcd) (ef g2 ag) ||
